icon-themes/colibre_svg/cmd/sc_accent1cellstyles.svg

<svg viewBox="0 0 16 16" xmlns="http://www.w3.org/2000/svg"><rect fill="#808080" height="16" ry="1" width="16"/><path d="m6.8984375.003906-5.8984375 16h1.6875c.1834758 0 .3391615-.05267.4667969-.158203.1356125-.10553.2275273-.227232.2753906-.365234l1.328125-3.835938h6.4843745l1.339844 3.847657c.06382.146119.151991.267821.263672.365234.119658.09741.275344.146484.466797.146484h1.6875l-5.8867187-16zm1.1015625 2.09375 2.691406 7.964844h-5.3828122l2.2246094-6.4296877c.0717949-.1948249.1467904-.421874.2265624-.6816407.0797722-.2597665.1604623-.5450426.2402344-.8535156z" fill="#fff"/></svg>

<svg viewBox="0 0 16 16" xmlns="http://www.w3.org/2000/svg">
  <rect
     style="fill:#808080"
     width="16"
     height="16"
     x="0"
     y="0"
     ry="1" />
  <path
     style="fill:#ffffff"
     d="M 6.8984375,0.003906 1,16.003906 h 1.6875 c 0.1834758,0 0.3391615,-0.05267 0.4667969,-0.158203 0.1356125,-0.10553 0.2275273,-0.227232 0.2753906,-0.365234 l 1.328125,-3.835938 h 6.4843745 l 1.339844,3.847657 c 0.06382,0.146119 0.151991,0.267821 0.263672,0.365234 0.119658,0.09741 0.275344,0.146484 0.466797,0.146484 H 15 l -5.8867187,-16 z M 8,2.097656 10.691406,10.0625 H 5.3085938 L 7.5332032,3.6328123 C 7.6049981,3.4379874 7.6799936,3.2109383 7.7597656,2.9511716 7.8395378,2.6914051 7.9202279,2.406129 8,2.097656 Z"
     />
</svg>
